dist/svg/sphere-search.svg

<!-- Generated by Trend Micro Style Portal -->
<svg version="1.1" xmlns="http://www.w3.org/2000/svg" width="16" height="16" viewBox="0 0 16 16">
  <title>sphere-search</title>
  <path fill="rgb(34,34,34)" d="M11 15c-0.4 0-0.9-0.1-1.3-0.2v0c0 0 0 0 0 0-0.3-0.1-0.7-0.3-1-0.5-0.1 0.2-0.2 0.4-0.3 0.7-0.2 0-0.3 0-0.5 0s-0.3 0-0.5 0c-0.4-0.8-0.8-1.8-1-2.8v-0.1c0.2 0 0.4 0 0.7 0 0-0.4-0.1-0.7-0.1-1.1-0.2 0-0.5 0-0.7 0-0.2-0.7-0.3-1.6-0.3-2.5v0h1.9c0.3-0.4 0.7-0.7 1.2-1h-3.1c0-0.9 0.1-1.7 0.3-2.6 0.5 0.1 1.1 0.1 1.7 0.1s1.2 0 1.7-0.1c0.1 0.7 0.2 1.5 0.3 2.3 0.3-0.1 0.6-0.1 1-0.1 0-0.8-0.1-1.6-0.2-2.3v0.1c1.1-0.2 2.1-0.4 3.1-0.7 0.7 1 1.1 2.1 1.2 3.4v0h-2.1c0.5 0.3 0.9 0.6 1.2 1h0.8c0 0.4-0.1 0.8-0.2 1.2 0.1 0.4 0.2 0.8 0.2 1.3 0 0.4-0.1 0.7-0.1 1v0c0.7-1.2 1.1-2.6 1.1-4.1 0-4.4-3.6-8-8-8s-8 3.6-8 8c0 4.4 3.6 8 8 8 1.5 0 2.9-0.4 4.1-1.1v0c-0.4 0-0.7 0.1-1.1 0.1zM13.9 4h-0.1c0 0.1 0.1 0.1 0.1 0zM9.7 1.2c1.3 0.3 2.5 1 3.4 2v0 0c-0.7 0.2-1.6 0.4-2.5 0.6h-0.1c-0.2-1-0.5-1.9-0.9-2.7l0.1 0.1zM7.5 1c0.2 0 0.3 0 0.5 0s0.3 0 0.5 0c0.4 0.8 0.8 1.8 1 2.8v0.1c-0.5 0.1-1 0.1-1.5 0.1s-1 0-1.5-0.1c0.3-1 0.6-2 1-2.9zM6.2 1.2v0 0c-0.2 0.7-0.5 1.6-0.7 2.5v0.1c-1-0.1-1.8-0.3-2.6-0.6 0.9-0.9 2-1.6 3.3-2zM2.2 4.1c0.9 0.3 1.9 0.5 3 0.7h0.1c-0.2 0.8-0.3 1.7-0.3 2.7v0h-4c0.1-1.3 0.5-2.4 1.2-3.4zM2.2 11.9v0c0 0 0 0 0 0s-0.1 0-0.1 0h0.1c-0.7-0.9-1.1-2.1-1.2-3.4v0h4c0 1 0.1 1.9 0.3 2.8v-0.1c-1.1 0.2-2.1 0.4-3.1 0.7zM6.3 14.8c-1.3-0.3-2.5-1-3.4-2v0c0.7-0.2 1.6-0.4 2.5-0.6h0.1c0.2 1 0.5 1.9 0.9 2.7l-0.1-0.1zM8.5 15v0 0c0 0 0 0 0 0zM2.2 11.9v0 0c0 0 0 0 0 0v0zM14 11c0-1.7-1.3-3-3-3s-3 1.3-3 3 1.3 3 3 3c0.6 0 1.1-0.2 1.5-0.4l2.4 2.4 1.1-1.1-2.4-2.4c0.2-0.4 0.4-0.9 0.4-1.5zM11 13c-1.1 0-2-0.9-2-2s0.9-2 2-2 2 0.9 2 2c0 1.1-0.9 2-2 2z"></path>
</svg>

<svg width="16" height="16" viewBox="0 0 16 16" fill="rgb(34, 34, 34)" xmlns="http://www.w3.org/2000/svg"><title>sphere-search</title><path d="M11 15C10.6 15 10.1 14.9 9.7 14.8C9.4 14.7 9 14.5 8.7 14.3C8.6 14.5 8.5 14.7 8.4 15C8.2 15 8.1 15 7.9 15C7.7 15 7.6 15 7.4 15C7 14.2 6.6 13.2 6.4 12.2V12.1C6.6 12.1 6.8 12.1 7.1 12.1C7.1 11.7 7 11.4 7 11C6.8 11 6.5 11 6.3 11C6.1 10.3 6 9.4 6 8.5H7.9C8.2 8.1 8.6 7.8 9.1 7.5H6C6 6.6 6.1 5.8 6.3 4.9C6.8 5 7.4 5 8 5C8.6 5 9.2 5 9.7 4.9C9.8 5.6 9.9 6.4 10 7.2C10.3 7.1 10.6 7.1 11 7.1C11 6.3 10.9 5.5 10.8 4.8V4.9C11.9 4.7 12.9 4.5 13.9 4.2C14.6 5.2 15 6.3 15.1 7.6H13C13.5 7.9 13.9 8.2 14.2 8.6H15C15 9 14.9 9.4 14.8 9.8C14.9 10.2 15 10.6 15 11.1C15 11.5 14.9 11.8 14.9 12.1C15.6 10.9 16 9.5 16 8C16 3.6 12.4 0 8 0C3.6 0 0 3.6 0 8C0 12.4 3.6 16 8 16C9.5 16 10.9 15.6 12.1 14.9C11.7 14.9 11.4 15 11 15ZM13.9 4H13.8C13.8 4.1 13.9 4.1 13.9 4ZM9.7 1.2C11 1.5 12.2 2.2 13.1 3.2C12.4 3.4 11.5 3.6 10.6 3.8H10.5C10.3 2.8 10 1.9 9.6 1.1L9.7 1.2ZM7.5 1C7.7 1 7.8 1 8 1C8.2 1 8.3 1 8.5 1C8.9 1.8 9.3 2.8 9.5 3.8V3.9C9 4 8.5 4 8 4C7.5 4 7 4 6.5 3.9C6.8 2.9 7.1 1.9 7.5 1ZM6.2 1.2C6 1.9 5.7 2.8 5.5 3.7V3.8C4.5 3.7 3.7 3.5 2.9 3.2C3.8 2.3 4.9 1.6 6.2 1.2ZM2.2 4.1C3.1 4.4 4.1 4.6 5.2 4.8H5.3C5.1 5.6 5 6.5 5 7.5H1C1.1 6.2 1.5 5.1 2.2 4.1ZM2.2 11.9C1.5 11 1.1 9.8 1 8.5H5C5 9.5 5.1 10.4 5.3 11.3V11.2C4.2 11.4 3.2 11.6 2.2 11.9ZM6.3 14.8C5 14.5 3.8 13.8 2.9 12.8C3.6 12.6 4.5 12.4 5.4 12.2H5.5C5.7 13.2 6 14.1 6.4 14.9L6.3 14.8ZM14 11C14 9.3 12.7 8 11 8C9.3 8 8 9.3 8 11C8 12.7 9.3 14 11 14C11.6 14 12.1 13.8 12.5 13.6L14.9 16L16 14.9L13.6 12.5C13.8 12.1 14 11.6 14 11ZM11 13C9.9 13 9 12.1 9 11C9 9.9 9.9 9 11 9C12.1 9 13 9.9 13 11C13 12.1 12.1 13 11 13Z" fill="rgb(34, 34, 34)" fill-opacity="1.00"/></svg>
